X: 238
T:Teague's Ramble
S:WB Olson, irtrad-l, 11/97
N:A New Selection of the most Admired Original Irish Airs,
N:Hime:Dublin, n.d. (c 1800). one of 22 tunes.
N:Copy at Lib. of Congress
Q:56
L:1/8
M:6/8
K:Dm
A|d3/2e/2d/2e/2 f3/2a/2g/2f/2|ecc c2A|\
d3/2e/2d/2e/2 f3/2a/2g/2f/2|eAA A2f/2g/2|\
a3/2b/2a/2b/2 g3/2a/2g/2a/2|\
f/2e/2f/2a/2g/2f/2 {f}e2e|\
f/2e/2f/2g/2a/2f/2 g/2f/2g/2a/2b/2g/2|add d2|]
